boxicons/svg/regular/bx-planet.svg

<svg xmlns="http://www.w3.org/2000/svg" width="24" height="24" viewBox="0 0 24 24"><path fill="none" d="M4.633 17.117c-.374.689-.594 1.516-.377 1.76.23.262.918.281 1.942-.021C5.61 18.354 5.085 17.773 4.633 17.117zM8.349 17.962c1.546-.794 3.426-2.043 5.488-3.876 2.065-1.834 3.527-3.553 4.498-4.994-.105-.227-.221-.449-.351-.667C16.71 6.293 14.474 5.02 12.001 5.02c-1.257 0-2.498.346-3.589.999-1.607.96-2.742 2.482-3.195 4.286-.453 1.803-.173 3.681.789 5.286C6.6 16.586 7.409 17.384 8.349 17.962zM19.474 7.067c.421-.982.483-1.668.252-1.929-.229-.259-.505-.356-.861-.323-.232.025-.577.137-1.008.399C18.469 5.748 19.013 6.366 19.474 7.067zM15.165 15.582c-1.409 1.252-2.926 2.381-4.413 3.292.404.072.815.122 1.237.122 1.257 0 2.499-.346 3.59-.999 1.607-.96 2.741-2.481 3.194-4.285.177-.704.238-1.42.194-2.126C17.887 12.956 16.576 14.329 15.165 15.582z"/><path d="M2.76,20.205c0.517,0.581,1.257,0.841,2.147,0.841c0.975,0,2.133-0.319,3.373-0.86c1.144,0.519,2.396,0.811,3.709,0.811 c1.619,0,3.216-0.443,4.616-1.282c2.065-1.234,3.524-3.192,4.107-5.515c0.412-1.643,0.344-3.329-0.163-4.908 c1.31-2.236,1.753-4.263,0.672-5.48c-0.661-0.744-1.58-1.091-2.575-0.983C17.815,2.919,16.96,3.33,16.098,4.02 c-1.243-0.64-2.634-1-4.097-1c-1.618,0-3.215,0.443-4.615,1.282C5.319,5.536,3.861,7.495,3.277,9.817 c-0.449,1.788-0.333,3.63,0.306,5.325C2.518,16.346,1.529,18.819,2.76,20.205z M4.256,18.877c-0.217-0.244,0.003-1.07,0.377-1.76 c0.452,0.656,0.978,1.237,1.565,1.739C5.174,19.158,4.486,19.139,4.256,18.877z M18.773,13.712 c-0.453,1.804-1.587,3.325-3.194,4.285c-1.091,0.653-2.333,0.999-3.59,0.999c-0.422,0-0.833-0.05-1.237-0.122 c1.487-0.911,3.004-2.04,4.413-3.292c1.411-1.253,2.722-2.626,3.803-3.996C19.012,12.292,18.95,13.008,18.773,13.712z M18.864,4.815c0.356-0.033,0.632,0.064,0.861,0.323c0.231,0.261,0.169,0.946-0.252,1.929c-0.461-0.701-1.005-1.319-1.617-1.853 C18.287,4.952,18.632,4.841,18.864,4.815z M5.217,10.305C5.67,8.501,6.805,6.979,8.412,6.019c1.091-0.653,2.332-0.999,3.589-0.999 c2.473,0,4.709,1.273,5.983,3.405c0.13,0.218,0.245,0.44,0.351,0.667c-0.971,1.441-2.433,3.16-4.498,4.994 c-2.063,1.833-3.942,3.082-5.488,3.876c-0.939-0.578-1.749-1.376-2.343-2.371C5.044,13.985,4.764,12.107,5.217,10.305z"/></svg>

<svg xmlns="http://www.w3.org/2000/svg" viewBox="0 0 24 24" width="24" height="24"><path d="M2.76 20.2a2.73 2.73 0 0 0 2.15.85 8.86 8.86 0 0 0 3.37-.86 9 9 0 0 0 12.27-10.9c1.31-2.23 1.75-4.26.67-5.48a2.94 2.94 0 0 0-2.57-1A5 5 0 0 0 16.1 4 9 9 0 0 0 3.58 15.14c-1.06 1.21-2.05 3.68-.82 5.06zm1.5-1.32c-.22-.25 0-1.07.37-1.76a9.26 9.26 0 0 0 1.57 1.74c-1.03.3-1.71.28-1.94.02zm14.51-5.17A7 7 0 0 1 15.58 18 7.12 7.12 0 0 1 12 19a6.44 6.44 0 0 1-1.24-.13 30.73 30.73 0 0 0 4.42-3.29 31.5 31.5 0 0 0 3.8-4 6.88 6.88 0 0 1-.21 2.13zm.09-8.89a.94.94 0 0 1 .87.32c.23.26.16.94-.26 1.93a9.2 9.2 0 0 0-1.61-1.86 2.48 2.48 0 0 1 1-.39zM5.22 10.31A6.94 6.94 0 0 1 8.41 6 7 7 0 0 1 12 5a6.9 6.9 0 0 1 6 3.41 5.19 5.19 0 0 1 .35.66 27.43 27.43 0 0 1-4.49 5A27.35 27.35 0 0 1 8.35 18a7 7 0 0 1-3.13-7.65z"/></svg>
